X:4
T:The Wish
C:Lyric Todkill
L:1/8
R:Slow Air
M:3/4
K:D
Q:"65 bpm"
[| {g}Bd {ag}a3g | {a}fa {c}d3c | {g}Bd {gf}g3B | {d}c4 {G}A2 | 
{g}Bd {ag}a3g | {a}fa {c}d3c | {g}Bd {gf}g2{ag}a2 | {c}d3e {g}fg ||
{ag}a3g {a}fd | {g}A/B/d {gf}g3a | {e}f3a {fg}fd | {ge}f2 {g}e3d |
{ag}a3g {a}fd | {g}A/B/d {gf}g3d | {g}c2 {ag}a2 c2 | {g}d4 {G}A2 |
"55 bpm"{g}Bd {ag}a3g [M:5/4]| {a}fd {g}A/B/d {gf}g3d {g}c/d/e "Spey Time 116 bpm"[M:C]|{ag}a4 c4 |]

